resources/mmv/img/assessments.svg

<svg xmlns="http://www.w3.org/2000/svg" viewBox="0 0 14.633 17.227" enable-background="new 0 0 14.633 17.227"><path d="M11.388 14.167h-2.193c-.233 0-.486-.18-.562-.4 0 0-.349-1.012-.583-2.183-.104-.519-.199-1.064-.199-1.064-.04-.23.079-.533.265-.673 0 0 3.016-2.278 3.466-4.531.41-2.048.288-4.892.288-4.892-.009-.233-.208-.424-.441-.424h-8.225c-.233 0-.432.191-.442.423 0 0-.121 2.845.288 4.892.451 2.253 3.467 4.531 3.467 4.531.186.14.305.443.265.673 0 0-.095.545-.199 1.064-.234 1.172-.583 2.184-.583 2.184-.076.22-.329.4-.562.4h-2.193c-.233 0-.424.191-.424.424v2.212c0 .233.191.424.424.424h8.143c.233 0 .424-.191.424-.424v-2.212c0-.233-.191-.424-.424-.424zm3.155-11.27c-.052-.216-.125-.431-.243-.648-.12-.224-.313-.45-.55-.595-.237-.148-.508-.22-.761-.222-.254-.004-.49.055-.696.15l-.042.02c-.044.025-.082.14-.083.257l-.006.298c-.003.116.088.191.202.166l.14-.01c.14-.004.269.014.374.054l.138.071.1.089.071.105.01.019.022.052.011.03.003.009v.002l.005.012.06.212.03.174c.038.278.04.584.007.881-.033.295-.104.592-.208.816l-.079.147-.04.057-.059.066c-.085.09-.184.173-.287.236-.207.128-.42.191-.68.154l-.046-.006c-.053-.013-.121.068-.151.18l-.112.366c-.039.11-.044.216-.012.235l.032.016c.208.106.452.172.701.179.249.01.497-.039.722-.123.226-.086.43-.204.616-.351l.137-.12.137-.147c.085-.101.154-.205.213-.308.118-.207.199-.416.261-.624.062-.208.103-.417.128-.626.045-.42.035-.843-.065-1.273zm-11.568 3.374c.032-.02.027-.126-.012-.235l-.113-.366c-.03-.112-.098-.194-.151-.18l-.046.006c-.26.037-.473-.026-.68-.154-.103-.063-.203-.146-.288-.236l-.058-.066-.041-.058-.078-.146c-.103-.224-.175-.521-.208-.817-.034-.297-.032-.603.007-.881l.029-.174.06-.212.005-.012v.001-.002l.003-.009.011-.03.022-.052.01-.019.07-.105.1-.089.138-.071c.105-.04.234-.058.374-.054l.14.01c.113.025.204-.049.201-.166l-.005-.297c-.002-.117-.039-.232-.083-.257l-.042-.02c-.206-.095-.442-.154-.696-.15-.253.002-.524.075-.761.223-.237.145-.431.371-.55.595-.119.217-.192.432-.244.648-.1.43-.109.853-.061 1.272.025.209.066.418.128.626.062.207.143.416.261.623.059.104.128.207.213.308l.137.147.137.12c.186.148.39.266.616.351.225.083.473.132.722.123.248-.007.493-.074.701-.18l.032-.015z" fill="#bbb"/></svg>

<?xml version="1.0" encoding="utf-8"?>
<!-- Generator: Adobe Illustrator 17.1.0, SVG Export Plug-In . SVG Version: 6.00 Build 0)  -->
<!DOCTYPE svg PUBLIC "-//W3C//DTD SVG 1.1//EN" "http://www.w3.org/Graphics/SVG/1.1/DTD/svg11.dtd">
<svg version="1.1" id="Layer_1" xmlns="http://www.w3.org/2000/svg" xmlns:xlink="http://www.w3.org/1999/xlink" x="0px" y="0px"
	 viewBox="0 0 14.633 17.227" enable-background="new 0 0 14.633 17.227" xml:space="preserve">
<g>
	<path fill="#BBBBBB" d="M11.388,14.167H9.195c-0.233,0-0.486-0.18-0.562-0.4c0,0-0.349-1.012-0.583-2.183
		c-0.104-0.519-0.199-1.064-0.199-1.064C7.811,10.29,7.93,9.987,8.116,9.847c0,0,3.016-2.278,3.466-4.531
		c0.41-2.048,0.288-4.892,0.288-4.892C11.861,0.191,11.662,0,11.429,0H3.204C2.971,0,2.772,0.191,2.762,0.423
		c0,0-0.121,2.845,0.288,4.892c0.451,2.253,3.467,4.531,3.467,4.531c0.186,0.14,0.305,0.443,0.265,0.673
		c0,0-0.095,0.545-0.199,1.064C6.349,12.755,6,13.767,6,13.767c-0.076,0.22-0.329,0.4-0.562,0.4H3.245
		c-0.233,0-0.424,0.191-0.424,0.424v2.212c0,0.233,0.191,0.424,0.424,0.424h8.143c0.233,0,0.424-0.191,0.424-0.424v-2.212
		C11.812,14.358,11.621,14.167,11.388,14.167z"/>
	<path fill="#BBBBBB" d="M14.543,2.897c-0.052-0.216-0.125-0.431-0.243-0.648c-0.12-0.224-0.313-0.45-0.55-0.595
		c-0.237-0.148-0.508-0.22-0.761-0.222c-0.254-0.004-0.49,0.055-0.696,0.15c-0.042,0.02-0.042,0.02-0.042,0.02
		c-0.044,0.025-0.082,0.14-0.083,0.257l-0.006,0.298c-0.003,0.116,0.088,0.191,0.202,0.166c0,0,0.028-0.006,0.14-0.01
		c0.14-0.004,0.269,0.014,0.374,0.054c0.053,0.018,0.099,0.044,0.138,0.071c0.04,0.026,0.072,0.057,0.1,0.089
		c0.028,0.032,0.05,0.067,0.071,0.105c0.01,0.019,0.01,0.019,0.01,0.019c0.01,0.023,0.019,0.046,0.022,0.052
		c0.002,0.006,0.01,0.025,0.011,0.03c0.001,0.005,0.003,0.009,0.003,0.009c0,0.001,0,0.002,0,0.002c0,0.001,0,0,0,0
		c0-0.001-0.001-0.002,0,0c0.001,0.002,0.003,0.008,0.005,0.012c0.002,0.004,0.029,0.1,0.06,0.212c0,0,0.01,0.037,0.03,0.174
		c0.038,0.278,0.04,0.584,0.007,0.881c-0.033,0.295-0.104,0.592-0.208,0.816c-0.026,0.056-0.053,0.105-0.079,0.147
		c-0.014,0.022-0.023,0.036-0.04,0.057c-0.018,0.023-0.037,0.044-0.059,0.066c-0.085,0.09-0.184,0.173-0.287,0.236
		c-0.207,0.128-0.42,0.191-0.68,0.154c-0.046-0.006-0.046-0.006-0.046-0.006c-0.053-0.013-0.121,0.068-0.151,0.18l-0.112,0.366
		c-0.039,0.11-0.044,0.216-0.012,0.235c0,0,0,0,0.032,0.016c0.208,0.106,0.452,0.172,0.701,0.179
		c0.249,0.01,0.497-0.039,0.722-0.123c0.226-0.086,0.43-0.204,0.616-0.351c0.046-0.037,0.092-0.078,0.137-0.12
		c0.046-0.043,0.096-0.097,0.137-0.147c0.085-0.101,0.154-0.205,0.213-0.308c0.118-0.207,0.199-0.416,0.261-0.624
		c0.062-0.208,0.103-0.417,0.128-0.626C14.653,3.75,14.643,3.327,14.543,2.897z"/>
	<path fill="#BBBBBB" d="M2.975,6.271c0.032-0.02,0.027-0.126-0.012-0.235L2.85,5.67C2.82,5.558,2.752,5.476,2.699,5.49
		c0,0,0,0-0.046,0.006C2.393,5.533,2.18,5.47,1.973,5.342C1.87,5.279,1.77,5.196,1.685,5.106C1.663,5.083,1.645,5.062,1.627,5.04
		C1.61,5.018,1.6,5.004,1.586,4.982C1.561,4.941,1.533,4.891,1.508,4.836C1.405,4.612,1.333,4.315,1.3,4.019
		C1.266,3.722,1.268,3.416,1.307,3.138c0.019-0.137,0.029-0.174,0.029-0.174c0.031-0.112,0.059-0.207,0.06-0.212
		s0.004-0.01,0.005-0.012c0.001-0.002,0-0.001,0,0c0,0.001-0.001,0.001,0,0.001c0,0,0-0.001,0-0.002c0,0,0.002-0.005,0.003-0.009
		c0.002-0.005,0.009-0.024,0.011-0.03c0.002-0.006,0.012-0.029,0.022-0.052c0,0,0,0,0.01-0.019c0.02-0.038,0.043-0.073,0.07-0.105
		c0.027-0.033,0.06-0.063,0.1-0.089c0.04-0.027,0.085-0.053,0.138-0.071C1.86,2.324,1.989,2.306,2.129,2.31
		c0.112,0.004,0.14,0.01,0.14,0.01C2.382,2.345,2.473,2.271,2.47,2.154L2.465,1.857C2.463,1.74,2.426,1.625,2.382,1.6
		c0,0,0,0-0.042-0.02c-0.206-0.095-0.442-0.154-0.696-0.15C1.391,1.432,1.12,1.505,0.883,1.653c-0.237,0.145-0.431,0.371-0.55,0.595
		C0.214,2.465,0.141,2.68,0.089,2.896c-0.1,0.43-0.109,0.853-0.061,1.272c0.025,0.209,0.066,0.418,0.128,0.626
		C0.218,5.001,0.299,5.21,0.417,5.417C0.476,5.521,0.545,5.624,0.63,5.725c0.041,0.049,0.091,0.103,0.137,0.147
		c0.045,0.042,0.091,0.083,0.137,0.12c0.186,0.148,0.39,0.266,0.616,0.351c0.225,0.083,0.473,0.132,0.722,0.123
		C2.49,6.459,2.735,6.392,2.943,6.286C2.975,6.271,2.975,6.271,2.975,6.271z"/>
</g>
</svg>
